icon/indicator-horizontal.svg

<svg xmlns="http://www.w3.org/2000/svg" width="11" height="21" fill="none"><path fill="#fff" fill-rule="evenodd" d="M0 0v16h2v2h2v2h1v-1H3v-2H1V1h9V0Z" clip-rule="evenodd" style="fill:#525252;fill-opacity:1"/><path fill="#C0C7C8" fill-rule="evenodd" d="M1 1v15h1v1h1v1h1v1h2v-1h1v-1h1v-1h1V1Z" clip-rule="evenodd" style="fill:#363636;fill-opacity:1"/><path fill="#87888F" fill-rule="evenodd" d="M9 1h1v15H8v2H6v2H5v-1h2v-2h2Z" clip-rule="evenodd" style="fill:#2b2b2b;fill-opacity:1"/><path fill="#000" fill-rule="evenodd" d="M10 0h1v16H9v2H7v2H5v1h1v-2h2v-2h2Z" clip-rule="evenodd" style="fill:#191919;fill-opacity:1"/></svg>

<?xml version="1.0" encoding="UTF-8" standalone="no"?>
<svg
   width="11"
   height="21"
   viewBox="0 0 11 21"
   fill="none"
   version="1.1"
   id="svg4"
   sodipodi:docname="indicator-horizontal.svg"
   inkscape:version="1.4.2 (ebf0e940d0, 2025-05-08)"
   xmlns:inkscape="http://www.inkscape.org/namespaces/inkscape"
   xmlns:sodipodi="http://sodipodi.sourceforge.net/DTD/sodipodi-0.dtd"
   xmlns="http://www.w3.org/2000/svg"
   xmlns:svg="http://www.w3.org/2000/svg">
  <defs
     id="defs4" />
  <sodipodi:namedview
     id="namedview4"
     pagecolor="#ffffff"
     bordercolor="#000000"
     borderopacity="0.25"
     inkscape:showpageshadow="2"
     inkscape:pageopacity="0.0"
     inkscape:pagecheckerboard="0"
     inkscape:deskcolor="#d1d1d1"
     inkscape:zoom="19.047619"
     inkscape:cx="7.1925"
     inkscape:cy="7.0875"
     inkscape:window-width="1116"
     inkscape:window-height="1051"
     inkscape:window-x="26"
     inkscape:window-y="23"
     inkscape:window-maximized="0"
     inkscape:current-layer="svg4" />
  <path
     fill-rule="evenodd"
     clip-rule="evenodd"
     d="M0 0V16H2V18H4V20H5V19H3V17H1V1H10V0Z"
     fill="white"
     id="path1"
     style="fill:#525252;fill-opacity:1" />
  <path
     fill-rule="evenodd"
     clip-rule="evenodd"
     d="M1 1V16H2V17H3V18H4V19H6V18H7V17H8V16H9V1Z"
     fill="#C0C7C8"
     id="path2"
     style="fill:#363636;fill-opacity:1" />
  <path
     fill-rule="evenodd"
     clip-rule="evenodd"
     d="M9 1H10V16H8V18H6V20H5V19H7V17H9Z"
     fill="#87888F"
     id="path3"
     style="fill:#2b2b2b;fill-opacity:1" />
  <path
     fill-rule="evenodd"
     clip-rule="evenodd"
     d="M10 0H11V16H9V18H7V20H5V21H6V19H8V17H10Z"
     fill="black"
     id="path4"
     style="fill:#191919;fill-opacity:1" />
</svg>
